X: 136009
T: LANNAGANS BALL
Q: "Irish Jig."
R: Jig.
%R: jig
B: James Kerr "Merry Melodies" v.1 p.36 s.0 #9
Z: 2016 John Chambers <jc:trillian.mit.edu>
N: Added dot to strains' final notes to fix the rhythm. (B pickup notes also work well.)
M: 6/8
L: 1/8
K: Em
|:\
vEFE uG2uA | vB2vA B^cd | DED uF2uG | ABA AFD |\
EFE G2A | B2A B^cd | e2B c2A | BGE E3 :|
|:\
ve2vf ug2ue | fag fed | e2f g2e | fdB B3 |\
e2f g2e | fag fe^d | e2B c2A | BGE E3 :|

%%sep 1 1 500
%%sep 1 1 500

